resources/svg/major-grammar.svg

<svg xmlns="http://www.w3.org/2000/svg" viewBox="0 0 20 20" fill="currentColor"><path d="M19 2.5a1.5 1.5 0 0 0-1.5-1.5h-15a1.5 1.5 0 0 0-1.5 1.5v15a1.5 1.5 0 0 0 1.5 1.5h6.5a1 1 0 0 0 0-2h-6v-14h14v8a1 1 0 1 0 2 0v-8.5zm-5 8.5h-8v-2h8v2zm-8 4v-2h4v2h-4zm0-10v2h8v-2h-8zm12.293 9.293-3.293 3.293-1.293-1.293a1 1 0 0 0-1.414 1.414l2 2a.997.997 0 0 0 1.414 0l4-4a1 1 0 0 0-1.414-1.414z"/></svg>

<svg xmlns="http://www.w3.org/2000/svg" viewBox="0 0 20 20" fill="currentColor"><path d="M19 2.5A1.5 1.5 0 0017.5 1h-15A1.5 1.5 0 001 2.5v15A1.5 1.5 0 002.5 19H9a1 1 0 000-2H3V3h14v8a1 1 0 102 0V7.956 2.5zM14 11H6V9h8v2zm-8 4v-2h4v2H6zM6 5v2h8V5H6zm12.293 9.293L15 17.586l-1.293-1.293a1 1 0 00-1.414 1.414l2 2a.997.997 0 001.414 0l4-4a1 1 0 00-1.414-1.414z" fill="#5C5F62"/></svg>
